X:301
T:B301-  Mall Peatly
Q:1/4=120
L:1/4
M:3/4
K:Dm
d3|f3/2 g/f|A2=B|^cBA|d2e|fgf|e2d|d3|d3|f2f|A2=B|^cBA|d2e|fgf|\
e2d|d2e|(f3/2 g/)f|F3/2 G/F|(f3|f2)f|e3/2 f/g|\
gec|(g3|g2)e|aad|f2g|aaA|^c2A|AaA|^c2A|Aaa|Aaa/a/|Aaa|\
^c2A|Ade|f2g|agf|c'ba|gef|e2d|d3|]
